packages/kaspersky-hexa-ui-icons/src/iconsSVGs/32/Reports2.svg

<svg xmlns="http://www.w3.org/2000/svg" width="32" height="32" fill="none" viewBox="0 0 32 32"><path fill="#000" fill-rule="evenodd" d="M5 5.9954c0-2.2092 1.7909-4 4-4h8.0585c.5367 0 1.051.2157 1.427.5987l7.9416 8.0879c.3672.374.5729.8772.5729 1.4013v13.9121c0 2.2091-1.7909 4-4 4h-5.3104c.7019-.4457 1.2159-1.1609 1.3963-2H23c1.1046 0 2-.8955 2-2v-13h-5c-2.2091 0-4-1.7909-4-4v-5H9c-1.1046 0-2 .8954-2 2v20c0 1.1045.8954 2 2 2h3.9141c.1804.8391.6944 1.5543 1.3963 2H9c-2.2091 0-4-1.7909-4-4zm13-1.0412 5.9318 6.0412H20c-1.1046 0-2-.8955-2-2z" clip-rule="evenodd"/><path fill="#000" d="M17.157 27.329c0 .639-.518 1.156-1.156 1.156s-1.156-.518-1.156-1.156.518-1.156 1.157-1.156 1.157.518 1.157 1.157m-2.826-7.668c0-.909.758-1.667 1.69-1.667.906 0 1.644.737 1.644 1.621v.214a1.347 1.347 0 0 1-1.02 1.307A2.174 2.174 0 0 0 15 23.245v.751c0 .552.448 1 1 1s1-.448 1-1v-.75c0-.08.054-.149.131-.168 1.49-.372 2.535-1.711 2.535-3.247v-.214c0-2.011-1.655-3.62-3.643-3.62-2.014 0-3.69 1.63-3.69 3.667 0 .552.448 1 1 1s1-.448 1-1"/></svg>

<svg width="32" height="32" viewBox="0 0 32 32" fill="none" xmlns="http://www.w3.org/2000/svg">
<path fill-rule="evenodd" clip-rule="evenodd" d="M5 5.99536C5 3.78622 6.79086 1.99536 9 1.99536H17.0585C17.5952 1.99536 18.1095 2.21112 18.4855 2.59412L26.4271 10.682C26.7943 11.056 27 11.5592 27 12.0833V25.9954C27 28.2045 25.2091 29.9954 23 29.9954H17.6896C18.3915 29.5497 18.9055 28.8345 19.0859 27.9954H23C24.1046 27.9954 25 27.0999 25 25.9954V12.9954H20C17.7909 12.9954 16 11.2045 16 8.99536V3.99536H9C7.89543 3.99536 7 4.89079 7 5.99536V25.9954C7 27.0999 7.89543 27.9954 9 27.9954H12.9141C13.0945 28.8345 13.6085 29.5497 14.3104 29.9954H9C6.79086 29.9954 5 28.2045 5 25.9954V5.99536ZM18 4.95424L23.9318 10.9954H20C18.8954 10.9954 18 10.0999 18 8.99536V4.95424Z" fill="black"/>
<path d="M17.1565 27.3287C17.1565 27.9674 16.6387 28.4851 16 28.4851C15.3613 28.4851 14.8435 27.9674 14.8435 27.3287C14.8435 26.69 15.3613 26.1722 16 26.1722C16.6387 26.1722 17.1565 26.69 17.1565 27.3287Z" fill="black"/>
<path d="M14.3333 19.662C14.3333 18.7528 15.0914 17.9954 16.0232 17.9954C16.9296 17.9954 17.6667 18.7322 17.6667 19.6159V19.8295C17.6667 20.4476 17.246 20.9864 16.6464 21.1363C15.6788 21.3782 15 22.2476 15 23.2449V23.9954C15 24.5476 15.4477 24.9954 16 24.9954C16.5523 24.9954 17 24.5476 17 23.9954V23.2449C17 23.1653 17.0542 23.0959 17.1314 23.0766C18.6214 22.7041 19.6667 21.3654 19.6667 19.8295V19.6159C19.6667 17.6051 18.0115 15.9954 16.0232 15.9954C14.0095 15.9954 12.3333 17.6257 12.3333 19.662C12.3333 20.2143 12.781 20.662 13.3333 20.662C13.8856 20.662 14.3333 20.2143 14.3333 19.662Z" fill="black"/>
</svg>
